X:1
T:Innsbruck, 77.67.78
T:Innsbruck, 77.67.78
T:Attributed to Heinrich Isaac, 1490
T:Public Domain Courtesy of the Cyber Hymnal™
C:Attributed to Heinrich Isaac, 1490
Z:Public Domain
Z:Courtesy of the Cyber Hymnal™
%%score ( 1 2 ) ( 3 4 )
L:1/8
Q:1/4=113
M:4/4
K:F
V:1 treble 
V:2 treble 
V:3 bass 
V:4 bass 
V:1
 [FA]2 | [DF]2 [EG]2 ([FA][GB]) [Ac]2 | B4 [FA]2 (AB) | c2 c2 G2 [CA]2 | F4 [CE]2 [G,C]2 | %5
 [CF]2 [B,G]2 A2 [CA]2 | [CG]6 [EA]2 | [DF]2 [CG]2 (AB) [Dc]2 | B4 (AB) (AB) | %9
 [Gc]2 c2 [DG]2 [EA]2 | F4 [^CE]2 =C2 | F2 G2 A2 B2 | [FA]2 [EG]2 [CF]2 |] %13
V:2
 x2 | x8 | D2 C2 F2 x2 | (FE) (FD) (ED) x2 | C2 =B,2 x4 | x4 (A,B,) x2 | x8 | x4 C2 x2 | %8
 (DC) (DE) ^F2 =F2 | x2 (FE) x4 | C2 =B,2 x4 | (CD) (CB,) (A,C) (DE) | x6 |] %13
V:3
 [D,C]2 | (B,A,) [G,B,]2 (CB,)[E,G,] x | [D,F,]2 [E,C]2 [F,C]2 [D,D]2 | C2 C2 C2 [A,,E,]2 | %4
 (F,E,) [D,F,]2 [C,G,]2 (E,D,) | [A,,C,]2 (D,E,) F,2 F,2 | [C,E,]6 [^C,A,]2 | %7
 (A,B,) (A,G,) (F,G,) [^F,A,]2 | (G,A,) (B,C) [D,D]2 [D,D]2 | (CB,) [F,A,]2 =B,2 E,2 | %10
 A,4 A,2 [A,,A,]2 | (A,B,) (A,G,) F,2 F,2 | [B,,D]2 (G,A,/B,/ [F,,F,A,]2) |] %13
V:4
 x2 | B,2 x F,3 A, x | x8 | (A,,G,,) (A,,B,,) C,B,, x2 | D,4 x B,,2 x | x2 G,,2 (F,,G,,) (A,,B,,) | %6
 x8 | D,2 E,2 ^F,2 x2 | G,2 G,,2 x4 | E,2 x (F, E,) (D,^C,) x | (D,E,) (F,G,) x4 | %11
 D,2 E,2 (F,E,) (D,C,) | x2 C,2 x2 |] %13

